resources/haticons/SVG/file.svg

<!-- Generated by IcoMoon.io -->
<svg version="1.1" xmlns="http://www.w3.org/2000/svg" width="24" height="24" viewBox="0 0 24 24">
<title>file</title>
<path d="M20.612 8.188l-7.624-7.624c-0.423-0.282-0.988-0.565-1.553-0.565h-5.083c-1.976 0-3.529 1.553-3.529 3.529v16.941c0 1.976 1.553 3.529 3.529 3.529h11.294c1.976 0 3.529-1.553 3.529-3.529v-10.729c0.001-0.565-0.14-1.129-0.564-1.553zM12.706 2.259l6.212 6.212h-4.094c-1.129 0-2.118-0.988-2.118-2.118-0.001 0-0.001-4.095-0.001-4.095zM17.647 22.588h-11.294c-1.129 0-2.118-0.988-2.118-2.118v-16.942c0-1.129 0.988-2.118 2.118-2.118h4.941v4.941c0 1.976 1.553 3.529 3.529 3.529h4.941v10.588c0.002 1.13-0.987 2.118-2.117 2.118z"></path>
</svg>

<svg xmlns="http://www.w3.org/2000/svg" width="24" height="24"><path d="M20.612 8.188L12.988.564C12.565.282 12-.001 11.435-.001H6.352a3.495 3.495 0 0 0-3.529 3.529v16.941a3.495 3.495 0 0 0 3.529 3.529h11.294a3.495 3.495 0 0 0 3.529-3.529V9.74c.001-.565-.14-1.129-.564-1.553zm-7.906-5.929l6.212 6.212h-4.094c-1.129 0-2.118-.988-2.118-2.118l-.001-4.095zm4.941 20.329H6.353c-1.129 0-2.118-.988-2.118-2.118V3.528c0-1.129.988-2.118 2.118-2.118h4.941v4.941a3.495 3.495 0 0 0 3.529 3.529h4.941v10.588c.002 1.13-.987 2.118-2.117 2.118z"/></svg>
